X:1
T:Title
%%score { ( 1 3 ) | ( 2 4 ) }
L:1/8
M:6/8
K:Bb
V:1 treble nm="Grand Piano"
V:3 treble 
V:2 bass 
V:4 bass 
V:1
 z3 z2[Q:1/4=99] [DF] | [DF][B,D][CE] [DF][EG][EA] | [DB][Ec][DB] [Fd]2 [Fc] | %3
 [GB][^FA][GB] [Ge][GB][EG] |[M:5/8] [DF]-[DF]- [DF]3 |[M:1/8] [DF] |[M:3/4] G^F G[GB] [=FA][EG] | %7
 [DF][FB] c d2 [Fd] | [=Ec][EG] [EA][EB] [EA][EG] |[M:5/8] c-c- c3 |[M:1/8] F | %11
[M:3/4] [Fd]3[K:bass][K:treble] [Fd]3[K:bass] | z2 z B z2 | z2 z G z2 | A6 | e3 e3 | e=B d c2 A | %17
 GB- B/A/G AG | F6 | [Fd]3[K:bass][K:treble] [Fd]3[K:bass] | z2 z B z2 | FG FB cB | e6 | d3 c3 | %24
 [Ff]d cB AB | [=Ec][EG] [Ed] [_Ec]2 [Fd] |[M:5/8] [DB]-[DB]- [DB]3 |] %27
V:2
 z3 z2 [B,,B,] | [B,,B,][B,,F,][B,,F,] [B,,B,][B,,B,][B,,B,] | %2
 [B,,F,][B,,F,][B,,F,] [B,,B,]2 [D,B,] | [E,E][E,E][E,E] [E,B,][E,B,][E,B,] | %4
[M:5/8] [B,,B,]-[B,,B,]- [B,,B,]3 |[M:1/8] [B,,B,] | %6
[M:3/4] [E,B,E][E,A,E] [E,B,E][E,B,] [E,B,][E,B,] | %7
 [B,,B,][D,B,][K:treble] [F,A,F] [B,F]2[K:bass] [B,,B,] | [C,B,][C,B,] [C,A,][C,G,] [C,C][C,B,] | %9
[M:5/8] [F,,F,A,E]-[F,,F,A,E]- [F,,F,A,E]3 |[M:1/8] [F,A,] |[M:3/4] [B,,B,]3 [B,,B,]3 | %12
 [B,,B,][B,,F,] [B,,F,] [B,,F,]2 [B,,B,] | [B,,B,]>[B,,B,] .[B,,B,]2 AB,, | %14
 [F,CE]2 [F,C] [F,C]2 [F,A,] | [F,CF]3 [F,CF]3 | [F,CF][F,_A,F] [F,A,F] [F,=A,E]2 [F,CE] | %17
 [F,CE]3 [F,A,E]2 [F,A,E] | [B,,B,]2 [B,,B,] [B,,B,]2 [B,,B,] | [B,,B,]3 [B,,B,]3 | %20
 [B,,B,][B,,F,] [B,,F,] [B,,F,]2 [B,,F,] | [_A,B,D]3 [A,B,D]2 [A,B,F] | %22
 [G,B,E]2 [G,B,][K:bass] [^F,B,]2 [F,B,E] | F-[F,F-] [F,F] [E,F]3 | %24
 [D,B,][F,B,F] [^F,A,E] [G,B,D]2 [G,B,D] | [C,B,][C,B,] [C,B,] [F,A,]2 [F,A,] | %26
[M:5/8] [B,,B,]-[B,,B,]- [B,,B,]3 |] %27
V:3
 x6 | x6 | x6 | x6 |[M:5/8] x5 |[M:1/8] x |[M:3/4] x6 | x6 | x6 |[M:5/8] x5 |[M:1/8] x | %11
[M:3/4] z[K:bass] D, .F,2[K:treble][K:bass] F,D, | [Fd][EA] [Ec]D- [DA][DG] | %13
 [DF]>[_D=E] [=DF] D2 [B,DB] | z2 E E2 F | z G, .A,2 A,G, | x6 | x6 | D2 D D2 [DF] | %19
 z[K:bass] D, .F,2[K:treble][K:bass] F,D, | [Fd][EA] [Ec]D- [DA][DG] | x6 | z2 E E2 e | %23
 z B, .B,2 A,A, | x6 | x6 |[M:5/8] x5 |] %27
V:4
 x6 | x6 | x6 | x6 |[M:5/8] x5 |[M:1/8] x |[M:3/4] x6 | x2[K:treble] x3[K:bass] x | x6 | %9
[M:5/8] x5 |[M:1/8] x |[M:3/4] x6 | x6 | z2 z .[B,,B,]3 | x6 | x6 | x6 | x6 | x6 | x6 | x6 | x6 | %22
 x3[K:bass] x3 | .[F,B,]2 z A, z2 | x6 | x6 |[M:5/8] x5 |] %27

